X:1
T:Symphony No. 4 in B Flat Major
T:Ludwig van Beethoven
T:Adp. from arrangements by Ernst Pauer and Franz Liszt
T:3rd Movement
%%score { ( 1 3 ) | ( 2 4 ) }
L:1/8
Q:1/4=285
M:3/4
K:Bb
V:1 treble nm="Piano"
V:3 treble 
V:2 bass 
V:4 bass 
V:1
"^Allegro vivace." F2 | [B,DB] z [DF]2 d z | [FB]2 f z .d2 | [Ff]2 [Ee]2 .c2 | [CEA]2 z2 F2 | %5
 _G2 A2 c2 | e2 f2 [_G_g]2 | e2 c2 A2 | _G2 F2 E2 | _D2 =E2 =G2 | B2 c2 [_D_d]2 | B2 G2 =E2 | %12
 _D2 C2 [G,C=E]2 | [F,CF] z [G,G]2!p! C z | [A,A]2!p! F z [B,FB]2- | [B,FB]2!mf! c2!mp! F z | %16
!mf! [Dd]2!mp! B z!f! [GB=e]2 |!ff! [FAcf]6 | [Acfa]6 | .[cfac']2 .[cfac']2 .[cfac']2 | %20
 .[FAcf]2 z2 ::!p! _A2 | ._d z _A2 .f z | _d2 ._a z f2 | _a2 ._g z e2 | c z _A2 _G z | E2 C z z2 | %27
 z2 _g2 e2 | b2 _a z f2 | =d z B2 _A z | F2 D z z2 | z2 [_A_a]2 [Af]2 | b2 _a z f2 | d z B2 _A z | %34
 F2 D z z2 | z2 [_A_a]2 [Af]2 |!p! [_G_g] z e2 g z | _c2 _g z B2 | A2 [ac']2 f' z | %39
 [ac']2 f' z [cac']2 | [_db_d'] z B2 d z | _G2 _d z F2 | =E z [=eg]2 c' z | [=eg]2 c' z [eg]2 | %44
 [f_a] z F2 _A z | =B, z [=Bd]2 g z | [ce] z c z e2 | ^F z [^fa]2 [dd'] z | [gb] z G2 B z | %49
 ^C z [^c=e]2 [Aa] z | [df] z [A,DF]2 A z | [A,CE]2!mp! A z [CEA]2 | c z [EAc]2!mf! e z | %53
 [Ace]2 a z!f! [Acea]2 |!ff! .[Bdb] z [df]2 .[dd'] z | [fb]2 [ff'] z .[dbd']2 | %56
 .[fac'f']2 .[ee']2 .[cc']2 | .[Acea]2 z2 F2 | _G2 A2 c2 | e2 [Ff]2 [_G_g]2 | [Ee]2 [Cc]2 [A,A]2 | %61
 [_G,_G]2 [F,F]2 =G2 | _A2 =B2 d2 | f2 [Gg]2 [_A_a]2 | [Ff]2 [Dd]2 [=B,=B]2 | %65
 [_A,_A]2 [G,G]2 [_d_d']2 | [Bb]2 [Gg]2 [=E=e]2 | [_D_d]2 [Cc]2 [=E=e]2 | [Ff]2 [Aa]2 [cc']2 | %69
 [ee']2 [ff']2 [_g_g']2 |!mp!!<(! [ff']2 [ee']2 [cc']2!<)! |!mf! [Aa]2 [Ff]2 [_Gc-e-_g]2 | %72
 [Fcef]2 [Aa]2 [cc']2 | [ee']2 [ff']2 [_g_g']2 |!mp!!<(! [ff']2 [ee']2 [cc']2!<)! | %75
!mf! [Aa]2 [Ff]2!ff! [_Gc-e-_g]2 | [Fcef]2!f! [Acea]4 | [Bdb]4 .[GBeg]2 |!ff! [FBdf]6 | [Acfa]6 | %80
!mf! [Bd]b[Bd]b[Bd]b | [Bd]b[Bd]b[Bd]b |!ff! .[Acea]2 .f z [cc']2 | .a z [ee']2 .[cc'] z | %84
!mf! [Bd]b[Bd]b[Bd]b | [Bd]b[Bd]b[Bd]b |!ff! .[Acea]2 .f z [cc']2 | .a z [ee']2 .[cc'] z | %88
!f! [Bdfb]6 | [dfbd']6 | .[fbd'f']2 .[fbd'f']2 .[fbd'f']2 | .[Bdfb]2 z2 :| %92
!p!"^TRIO."[Q:1/4=244]"^Un poco meno Allegro." [DB]2 | [Fd]4 [DB]2 | [Ec]4 [Ge]2 | %95
 [Ec]2{/=B} .c2{/d} .e2 |!f! g4!p! [Ec]2 | [Ge]4 [Ec]2 | [Fd]4 [_Af]2 | [Fd]2{/^c} .d2{/=e} .f2 | %100
!f! _a4 fd | [F_Af]4 [DFd]2 | [EGe]4!mf! [F_Af]2 |!ff! [GBg]6- | [GBg]4 [GBg]2 | %105
 [_ABf]2 z2 [ABf]2 | Te/f/e/f/e/f/ d e2 | [Fd]4 [=E^c]2- | [Ec]2 [_E=c]2 [DB][Ec] | %109
 [DFBd]4 [DB-]2 | [EBc]4 cd | .e2 ef!f! g2 | c2 z2 [Ec][Fd] | [EGB-e]4 [EBc]2 | [DBd]4 de | %115
 f2 fg!f! _a2 |!p! d2 z2 [DBd][Ece] | [Fdf]4!mp! [DBd]2 | [Ece]4 [Fdf]2 |!ff!!>(! [GBeg]6-!>)! | %120
 [GBeg]4 [Fdf]2 | [Ae]2 z2 [ce]2 | Te/f/e/f/e/f/ d e2 | [ce]2 z2 F2 | F4 F2 | F6- | %126
 F4!mp!!>(! [ff']2-!>)! |!p! [ff']4 [ee']2 | [cc']2 z2 F2 | F6- | F4!>(! [ff']2-!>)! | %131
!p! [ff']4 [ee']2 | [cc']2!pp! z DED | .E2 z DED | .E2 z DED | .E2 z4 | z2 z F_GF | ._G2 z FGF | %138
 ._G2 z FGF | _G=EFEFE | FA,B,A,B,A, | B,A,B,A,B,A, | B,2 z2!p! [Bdb]2 | [dfd']4!p! [Bdb]2 | %144
 [cec']4!mp! [ege']2 | [cec']2!mf!{/=B} c2{/d} e2 |!ff! g4!mp! [cec']2 | [ege']4 [cec']2 | %148
 [dfd']4 [f_af']2 | [dfd']2!mf!{/^c} d2{/=e} f2 |!ff! _a4!mp! !arpeggio![dfbd']2 | [Fdf]4 [DBd]2 | %152
 [Ece]4 [Fdf]2 |!p! [Geg]6- | [Geg]4!mp! [Fdf]2 | [Ece]4!mf! [ce]2 | Te/f/e/f/!f!e/f/ d e2 | %157
 [_Bd]2 z2 z2 | z2 z2!ff!!8va(! [dbd'][ec'e'] | [fd'f']4!f! [dbd']2 | [ebc'e']4 [fbd'f']2 | %161
!ff! [gbe'g']6- | [gbe'g']4!f! [fd'f']2 | [ec'e']2 z2 [ec'e']2!8va)! | %164
{/[d'f']} [ec'e']3 [d=bd'] [ec'e']2 | .[d_bd'] x x2!ff! [Ff]2 |!mf! [Fd]2 x2 [fd'f']2 | %167
 .[ec'e'] x x2!ff! [Ff]2 |!mf! [Ee]2 x2 [fac'f']2 | .[dbd']!f! x x2 [Ff]2 | [Fd]2 x2 [fd'f']2 | %171
 [ec'e']!mp! x x2 [Ff]2 | [Ee]2 x2 [fac'f']2 | [dbd']BABdB!pp! | [Dd]BABdB | [Dd]BABdB | %176
 [Dd]BABdB |[Q:1/4=285]"^Tempo I." [Dd]2 =E2 F z | F2 ^F z!mp! F2 | G z [G,G]2 [_A,_A] z | %180
 [_A,_A]2 [=A,=A] z [A,CEA]2 | .[B,DB] z F2 .d z | B2 .f z .d2 | [Ff]2 [Ee]2 .c2 | .A2 z2 F2 | %185
 _G2 A2 c2 | e2 f2 [_G_g]2 | [Ee]2 c2 A2 | _G2 F2 E2 | _D2 =E2 G2 | B2 c2 [_D_d]2 | [B,B]2 G2 =E2 | %192
 _D2 C2 [G,C=E]2 | [F,CF] z [G,G]2!mp! C z | [A,A]2 F z [B,B]2- | [B,B]2 [Cc]2 F z | %196
 [Dd]2 B z!f! [=EGB=e]2 | [FAcf]6 | [Acfa]6 | .[cfac']2 .[cfac']2 .[cfac']2 | .[FAcf]2 z2!p! _A2 | %201
 _d z _A2 f z | _d2 _a z f2 | _a2 _g z e2 | c z _A2 _G z | E2 C z z2 | z2 [_G_g]2 [Ge]2 | %207
 b2 _a z f2 | _d z B2 _A z | F2 _D z z2 | z2 _a2 f2 | b2 _a z f2 | =d z B2 _A z | F2 D z z2 | %214
 z2 _a2 f2 |!p! _g z e2 g z | _c2 _g z B2 | =A z [a=c']2 f' z | [ac']2 f' z [cac']2 | %219
 [_db_d'] z B2 d z | _G2 _d z F2 | =E z [=eg]2 c' z | [=eg]2 c' z [eg]2 | [f_a] z F2 _A z | %224
 z2 [=Bd]2 g z | [ce] z c2 e z | ^F z [^fa]2 [dd'] z | [gb] z G2 B z | ^C z [^c=e]2 [Aa] z | %229
 [df] z [A,DF]2!mp! A z | [A,C_E]2 A z [CEA]2 | c z [EAc]2!mf!"_-" e z | [Ace]2 a z [Acea]2 | %233
 [Bdb] z [Ff]2 .[dd'] z | [Bb]2 .[ff'] z .[dbd']2 | [fac'f']2 [ee']2 .[cc']2 | .[Acea]2 z2 F2 | %237
 _G2 A2 c2 | e2 f2 [_G_g]2 | [Ee]2 [Cc]2 [A,A]2 | [_G,_G]2 [F,F]2 =G2 | _A2 =B2 d2 | %242
 f2 g2 [_A_a]2 | [Ff]2 [Dd]2 [=B,=B]2 | [_A,_A]2 [G,G]2 [_d_d']2 | [Bb]2 [Gg]2 [=E=e]2 | %246
 [_D_d]2 [Cc]2 [=E=e]2 | [Ff]2 [Aa]2 [cc']2 | [ee']2 [ff']2 [_g_g']2 | %249
!mp!!<(! [ff']2 [ee']2 [cc']2!<)! |!mf! [Aa]2 [Ff]2!ff! [_Gc-e-_g]2 | [Fcef]2 [Aa]2 [cc']2 | %252
 [ee']2 [ff']2 [_g_g']2 |!mp! [ff']2!<(! [ee']2 [cc']2 |!mf! [Aa]2!<)! [Ff]2!ff! [_Gc-e-_g]2 | %255
 [Fcef]2 [Acea]4 |!f! [Bdb]4 .[GBeg]2 | [FBdf]6 | [Acfa]6 |!mf! [Bd]b[Bd]b[Bd]b | [Bd]b[Bd]b[Bd]b | %261
!ff! .[Acea]2 .f z [cc']2 | .a z [ee']2 .[cc'] z |!mf! [Bd]b[Bd]b[Bd]b | [Bd]b[Bd]b[Bd]b | %265
!ff! .[Acea]2 .f z [cc']2 | .a z [ee']2 .[cc'] z |!f! [Bdfb]6 | [dfbd']6 | %269
 .[fbd'f']2 .[fbd'f']2 .[fbd'f']2 | %270
"^At this measure (271) the Liszt arrangement has the\nfirst chord, then a quarter note rest, and then repeats\nthe entire Trio with these last 4 measures (271-274)\nas the second ending.\n" .[Bdfb]2!p! z2 z2 | %271
 z6 | z6 | [Bdb]2 z4 |] %274
V:2
!ff! [F,,,F,,]2 | [B,,,B,,] z!ped! [B,,D,F,B,]4 | [B,,D,F,B,]4!ped-up! .[B,,D,F,B,]2 | %3
 [F,,,F,,]2 [A,,,A,,]2 .[C,,C,]2 | [F,,F,]2 z2!p! F,2 | _G,2 A,2 C2 | E2 F2 [_G,,_G,]2 | %7
 E,2 [C,C]2 [A,,A,]2 | [_G,,_G,]2 [F,,F,]2 [E,,E,]2 | [_D,,_D,]2 [=E,,=E,]2 =G,2 | B,2 C2 _D,2 | %11
 [B,,B,]2 [G,,G,]2 [=E,,=E,]2 | [_D,,_D,]2 [C,,C,]2 [B,,,B,,]2 | %13
 [A,,,A,,] z!mp!"^cresc." [=E,,C,=E,]4 |!mp! [F,,C,F,]4!f! [G,,F,G,]2- | [G,,F,G,]2 [A,,F,A,]4 | %16
 [B,,F,B,]4 [C,C]2 |!ped! [F,,A,,C,F,]6 | [F,,A,,C,F,]6!ped-up! | %19
 .[F,,A,,C,F,]2 .[F,,A,,C,F,]2 .[F,,A,,C,F,]2 | .[F,,F,]2 z2 :: z2 |[K:treble] [_DF]2 [DF]4 | %23
 [_DF]4 [DF]2 | [_A,E_G]4 [A,EG]2 | [_A,E_G] z z2 z2 | z2 z2[K:bass] _A,2 | %27
 _G, z [_A,,E,_A,]2 [A,,C,A,]2 | [_D,_A,]4 [B,F_A]2 | [B,F_A]2 z2 z2 | z2 z2 B,2 | %31
 _A, z [_D,F,A,]2 [D,F,A,]2 | [B,,=D,]4 [B,F_A]2 | [B,F_A]2 z2 z2 | z2 z2 B,2 | %35
 _A, z [B,F]2 [B,D]2 |!mp! E6- | E6 |[K:treble] z2!p! [Ac]2 f z | [Ac]2 f z z2 |[K:bass]!mp! B,6- | %41
 B,6 | z2!p! G2 z2 | G2 x4 |!mp! F,6 | G,6 | C,6 | D,6 | G,,6 | A,,6 |"^cresc." D,,6 |!ped! F,,6- | %52
 F,,6- | F,,4!ped-up! [F,,F,]2 | .[B,,,B,,] z!ped! [B,,D,F,B,]4 | %55
 [B,,D,F,B,]4!ped-up! .[B,,D,F,B,]2 | .[F,,F,]2 .[A,,A,]2 .[C,C]2 | .[F,A,CF]2 z2!p! F,2 | %58
 _G,2 A,2 C2 | E2 z2 [_G,,_G,]2 | [E,,E,]2 [C,,C,]2 [A,,,A,,]2 | [_G,,,_G,,]2 [F,,,F,,]2 G,2 | %62
 _A,2 =B,2 D2 | F2 z2 [_A,,_A,]2 | [F,,F,]2 [D,,D,]2 [=B,,,=B,,]2 | %65
 [_A,,,_A,,]2 [G,,,G,,]2 [_D,_D]2 | [B,,B,]2 [G,,G,]2 [=E,,=E,]2 | [_D,,_D,]2 [C,,C,]2 [B,,=E,]2 | %68
!ped! F,2 A,2 C2 | E2 F2!mp! _G2 | F2 E2!mf! C2 | [F,A,]2!ped-up! F,2!ff! _G,2 | %72
!p!!ped! F,2 A,2 C2 | E2 F2!mp! _G2 | F2 E2!mf! C2 | [F,A,]2!ped-up! F,2 _G,2 | F,2 [F,,F,]4 | %77
 [G,,G,]4 .[E,,E,]2 | [F,,F,]6 | [F,A,CF]6 |!ff! [B,,,B,,]2 .F,, z [D,,D,]2 | %81
 .B,, z [F,,F,]2 .D, z | .[F,,F,]2!mf! [F,A,C]E[F,A,C]E | [F,A,C]E[F,A,C]E!ff! .[F,A,C] z | %84
!ff! [B,,,B,,]2 .F,, z [D,,D,]2 | .B,, z [F,,F,]2 .D, z | .[F,,F,]2!mf! [F,A,C]E[F,A,C]E | %87
 [F,A,C]E[F,A,C]E!ff! .[F,A,C] z |!ped! [B,,D,F,B,]6 | [B,,D,F,B,]6!ped-up! | %90
 .[B,,D,F,B,]2 .[B,,D,F,B,]2 .[B,,D,F,B,]2 | .[B,,D,F,B,]2 z2 :| D,2 | F,4 D,2 | E,4 G,2 | E,2 z4 | %96
 z2 z2 E,2 | G,4 E,2 | F,4 _A,2 | F,2 z4 | z2 z2!p! [F,D]2 |"^cresc." B,4!mp! [_A,B,]2 | %102
 [G,B,]4 [F,B,]2 |!>(! [E,B,]6-!>)! | [E,B,]4!p! [E,B,]2 | [B,,D,B,]2 z2 [B,,D,B,]2 | %106
 [B,,E,B,]4 [B,,E,B,]2 | [F,B,]4 G,2- | G,2 A,2 B,2- |!ped! [F,B,-]4 [D,B,-]2!ped-up! | %110
!ped! [E,B,]4 [G,E]2!ped-up! | [E,C]2 z4 |!p! z2 z2 [B,,B,]2 |!ped! [G,B,]4 [E,C]2!ped-up! | %114
!ped! !arpeggio![F,D]4 [_A,F]2 | [F,D]2!ped-up! z2 z2 | z2 z2 F,G, |"^cresc." [_A,B,]4 [A,B,]2 | %118
 [G,C]4!mf! [F,D]2 |!ped! !arpeggio![E,G,B,E]6- | [E,G,B,E]4!ped-up!!p! [B,D]2 | %121
 [F,CE]2 z2 [F,CE]2 | [CE]3 [=B,D] [CE]2 | [CE]2 z2 z2 | z2 z2!<(! A,2!<)! |!mp! C4 A,2 | %126
!mf! =B,4 [DF-]2 |!ped! F4 F2 | F4!ped-up! z2 | C4 A,2 | =B,4 [DF]2 |!ped! F6- | %132
 F2!ped-up! z =B,CB, | .C2 z =B,CB, | .C2 z =B,CB, | .C2 z4 | z2 z F,_G,F, | ._G,2 z F,G,F, | %138
 ._G,2 z F,G,F, | _G,=E,F,E,F,E, | F,A,,B,,A,,B,,A,, | B,,A,,B,,A,,B,,A,, | %142
!pp!!ped! B,,A,,[B,,B,]A,,[B,,B,]A,, | %143
"^cresc. poco a poco" [B,,B,]A,,!p![B,,B,]A,,[B,,B,]A,,!ped-up! | %144
!ped! [B,,B,]A,,[B,,B,]A,,[B,,B,]A,,!ped-up! | [B,,B,]!mp!A,,[B,,B,]A,,[B,,B,]A,, | %146
!ped! [B,,B,]A,,[B,,B,]!p!A,,!ped-up![B,,B,]A,, |!ped! [B,,B,]A,,[B,,B,]A,,[B,,B,]A,,!ped-up! | %148
!ped! [B,,B,]A,,[B,,B,]A,,[B,,B,]A,,!ped-up! | [B,,B,]!mp!A,,[B,,B,]A,,[B,,B,]A,, | %150
!ped! [B,,B,]A,,!p![B,,B,]A,,!ped-up![B,,B,]A,, |!ped! [B,,B,]A,,[B,,B,]A,,[B,,B,]_A,,!ped-up! | %152
!ped! [D,B,]G,,[B,,B,]!pp!G,,[B,,B,]F,,!ped-up! |!ped! [B,,B,]E,B,,E,,B,,E, | %154
"^cre" B,E,B,,E,,!ped-up!"^-" [B,,B,]F,, |"^scen"!ped! F,,A,,!mp!G,,A,,"^-"C,A,,!ped-up! | %156
"^do"!ped! F,,!mf!A,,G,,A,,C,A,,!ped-up! |!f!!ped! B,,A,,[B,,B,]A,,[B,,B,]A,, | %158
 B,,A,,[B,,B,]A,,[B,,B,]A,,!ped-up! | B,A,B,A,B,_A, |!ped! B,G,B,G,F,B,,!ped-up! | %161
!f!!ped! E,B,,E,B,E,B,, | E,,B,,E,!mf!G,!ped-up!B,F, |!ped! F,A,G,A,CA, | F,A,G,A,CA,!ped-up! | %165
 .F,!ped! B,A,B,!mf!DB, |!mp! DB,A,B,DB,!ped-up! | F,!ped! A,G,A,!mf!CA, | %168
!mp! CA,G,A,F,A,!ped-up! | F,!ped! B,A,"^dimin."B,DB, | DB,A,B,DB,!ped-up! |!ped! F,A,G,A,CA, | %172
 C!p!A,G,A,F,A,!ped-up! |!ped! [B,,B,]2 z2 z2 | [B,,F,B,]2 z2 z2 | [B,,F,B,]2 z2 z2 | %176
 [B,,F,B,]2 z2 z2!ped-up! | [B,,F,B,]2!p!"^cresc." z2 z2 | z2 z2 ^F,2 | %179
 G, z!mf! [G,,,G,,]2 [_A,,,_A,,] z | [_A,,,_A,,]2 [=A,,,=A,,] z!f! [F,,,F,,]2 | %181
!ff! .[B,,,B,,] z!ped! [B,,D,F,B,]4 | [B,,D,F,B,]4 [B,,D,F,B,]2!ped-up! | %183
 [F,,,F,,]2 [A,,,A,,]2 .[C,,C,]2 | .[F,,F,]2 z2!p! F,2 | _G,2 A,2 C2 | E2 F2 [_G,,_G,]2 | %187
 [E,,E,]2 [C,C]2 [A,,A,]2 | [_G,,_G,]2 [F,,F,]2 [E,,E,]2 | [_D,,_D,]2 =E,2 G,2 | B,2 C2 _D,2 | %191
 B,,2 [G,,G,]2 [=E,,=E,]2 | [_D,,_D,]2 [C,,C,]2 [B,,,B,,]2 | [A,,,A,,] z"^cresc." [=E,,C,=E,]4 | %194
 [F,,C,F,]4!f! [G,,F,G,]2- | [G,,F,G,]2!mf! [A,,F,A,]4 | [B,,F,B,]4 [C,,C,]2 |!ff! [F,,A,,C,F,]6 | %198
 [F,,A,,C,F,]6 | .[F,,A,,C,F,]2 .[F,,A,,C,F,]2 .[F,,A,,C,F,]2 | .[F,,A,,C,F,]2 z4 | %201
[K:treble] [_DF]2 [DF]4 | [_DF]4 [DF]2 | [_A,E_G]4 [A,EG]2 | [_A,E_G]2 z2 z2 | z2 z2 _A,2 | %206
 _G, z [_A,E]2 [A,C]2 | [_DF]4 [DF_A]2 | [_DF_A]2 z2 z2 | z2 z2 B,2 | %210
 _A, z[K:bass] [_D,F,_A,]2 [D,F,A,]2 | [B,,=D,]4 [B,F_A]2 | [B,F_A]2 z2 z2 | z2 z2 B,2 | %214
 _A, z [B,F]2 [B,D]2 |!mp! E6- | E6 |[K:treble] z2!p! =c2 z2 | c2 x4 |[K:bass]!mp! z6 | z6 | %221
 z2!p! G2 z2 | G2 x4 |!mp! x6 | =B, z z2 z2 | C,6 | D,6 | G,,6 | A,,6 |"^cre"!ped! D,,6!ped-up! | %230
!mf!"^-"!ped! F,,6- |"^scen" F,,6- |"^do" F,,4!ped-up!!f! [F,,,F,,]2 | %233
!ff! [B,,,B,,] z!ped! [B,,D,F,B,]4 | [B,,D,F,B,]4!ped-up! .[B,,D,F,B,]2 | %235
!ped! [F,,F,]2 [A,,A,]2 .[C,C]2!ped-up! | .[F,A,CF]2 z2!p! F,2 | _G,2 A,2 C2 | E2 F2 [_G,,_G,]2 | %239
 [E,,E,]2 [C,,C,]2 [A,,,A,,]2 | [_G,,,_G,,]2 [F,,,F,,]2 =G,2 | _A,2 =B,2 D2 | F2 G2 [_A,,_A,]2 | %243
 [F,,F,]2 [D,,D,]2 [=B,,,=B,,]2 | [_A,,,_A,,]2 [G,,,G,,]2 [_D,_D]2 | [B,,B,]2 [G,,G,]2 [=E,,=E,]2 | %246
 [_D,,_D,]2 [C,,C,]2 [B,,=E,]2 |!ped! F,2 A,2 C2 | E2 F2!mp! _G2 | F2 E2!mf! C2 | %250
 [F,A,]2 F,2!ped-up! _G,2 |!p!!ped! F,2 A,2 C2 | E2 F2!mp! _G2 | F2 E2!mf! C2 | %254
 [F,A,]2 F,2!ped-up! _G,2 | F,2!f! [F,,F,]4 | [G,,G,]4 .[E,,E,]2 |!ff! [F,,F,]6 | [F,A,CF]6 | %259
!ff! [B,,,B,,]2 .F,, z [D,,D,]2 | .B,, z [F,,F,]2 .D, z | .[F,,F,]2!mf! [F,A,C]E[F,A,C]E | %262
 [F,A,C]E[F,A,C]E!ff! .[F,A,C] z | [B,,,B,,]2 .F,, z [D,,D,]2 | .B,, z [F,,F,]2 .D, z | %265
 .[F,,F,]2!mf! [F,A,C]E[F,A,C]E | [F,A,C]E[F,A,C]E .[F,A,C] z |!ped! [B,,D,F,B,]6 | %268
 [B,,D,F,B,]6!ped-up! | .[B,,D,F,B,]2 .[B,,D,F,B,]2 .[B,,D,F,B,]2 | .[B,,D,F,B,]2 [D,B,]2 [D,B,]2 | %271
!mf!!<(! [D,B,]6 |!f! [F,C]6!<)! |!ff! [B,,,B,,]2 z4 |] %274
V:3
 x2 | x6 | x6 | [Ac]4 .[CE]2 | x6 | x6 | x6 | x6 | x6 | x6 | x6 | x6 | x6 | x6 | x6 | x6 | x6 | %17
 x6 | x6 | x6 | x4 :: x2 | x6 | x6 | x6 | x6 | x6 | z2 _G2 G2 | F4 x2 | x6 | x6 | x6 | _A4 x2 | %33
 x z x4 | x6 | x6 | x6 | x6 | x6 | x6 | x6 | x6 | x4 c z | x2 c z x2 | x6 | x6 | x6 | x6 | x6 | %49
 x6 | x6 | x6 | x6 | x6 | x6 | x6 | x6 | x6 | x6 | x6 | x6 | x6 | x6 | x6 | x6 | x6 | x6 | x6 | %68
 x6 | x6 | x6 | x6 | x6 | x6 | x6 | x6 | x6 | x6 | x6 | x6 | x6 | x6 | x6 | x6 | x6 | x6 | x6 | %87
 x6 | x6 | x6 | x6 | x4 :| x2 | x6 | x6 | x6 | x6 | x6 | x6 | x6 | x4 [FB]2 | x6 | x6 | x6 | x6 | %105
 x6 | G4 G2 | x6 | x6 | x6 | x6 | x6 | x6 | x6 | x6 | x6 | x6 | x6 | x6 | x6 | x6 | x6 | c3 =B c2 | %123
 x6 | z2 z2 C2 | E4 C2 | D4 x2 | x6 | x2 z2 CD | E4 C2 | D4 x2 | x6 | x6 | x6 | x6 | x6 | x6 | x6 | %138
 x6 | x6 | x6 | x6 | x6 | x6 | x6 | x6 | x6 | x6 | x6 | x6 | x6 | x6 | x6 | x6 | x6 | x6 | %156
 c3 =B c2 | x6 | x4!8va(! x2 | x6 | x6 | x6 | x6 | x6!8va)! | x6 | x BABdB | FBAB x2 | x AGAcA | %168
 cAGA x2 | x BABdB | F!mf!BAB x2 | x AGAcA | cA GA x2 | x6 | x6 | x6 | x6 | x6 | x6 | x6 | x6 | %181
 x2 [DF]4 | [DF]4 [FB]2 | [Ac]4 [CE]2 | [CE]2 x4 | x6 | x6 | x6 | x6 | x6 | x6 | x6 | x6 | x6 | %194
 x6 | x6 | x6 | x6 | x6 | x6 | x6 | x6 | x6 | x6 | x6 | x6 | x6 | x6 | x6 | x6 | x6 | x6 | x6 | %213
 x6 | x6 | x6 | x6 | x4 f z | x2 f z x2 | x6 | x6 | x4 c z | x2 c z x2 | x6 | x6 | x6 | x6 | x6 | %228
 x6 | x6 | x6 | x6 | x6 | x6 | x6 | x6 | x6 | x6 | x6 | x6 | x6 | x6 | x6 | x6 | x6 | x6 | x6 | %247
 x6 | x6 | x6 | x6 | x6 | x6 | x6 | x6 | x6 | x6 | x6 | x6 | x6 | x6 | x6 | x6 | x6 | x6 | x6 | %266
 x6 | x6 | x6 | x6 | x6 | x6 | x6 | x6 |] %274
V:4
 x2 | x6 | x6 | x6 | x6 | x6 | x6 | x6 | x6 | x6 | x6 | x6 | x6 | x6 | x6 | x6 | x6 | x6 | x6 | %19
 x6 | x4 :: x2 |[K:treble] x6 | x6 | x6 | x6 | x3[K:bass] x3 | x6 | x6 | x6 | x6 | x6 | x6 | x6 | %34
 x6 | x6 | x6 | x6 |[K:treble] F6- | F4 z2 |[K:bass] x6 | x6 | C6- | C6 | x6 | x6 | x6 | x6 | x6 | %49
 x6 | x6 | x6 | x6 | x6 | x6 | x6 | x6 | x6 | x6 | x6 | x6 | x6 | x6 | x6 | x6 | x6 | x6 | x6 | %68
 [A,,F,]6- | [A,,F,]6- | [A,,-F,]6 | A,,4 B,,2 | [A,,F,]6- | [A,,F,]6- | [A,,-F,]6 | A,,4 B,,2 | %76
 A,,2 x4 | x6 | x6 | x6 | x6 | x6 | x6 | x6 | x6 | x6 | x6 | x6 | x6 | x6 | x6 | x4 :| [B,,B,]2- | %93
 [B,,B,]6- | [B,,B,]6- | [B,,B,]2 z4 | z2 z2 [B,,B,]2- | [B,,B,]6- | [B,,B,]6- | [B,,B,]2 z4 | x6 | %101
 B,,6- | B,,4 B,,2 | B,,6- | B,,4 B,,2 | x6 | x6 | B,,6- | B,,4 B,,2 | B,,6 | B,,6- | B,,2 z4 | %112
 x6 | B,,6- | [B,,B,]6- | [B,,B,]2 z2 z2 | z2 z2 B,,2 | B,,6 | B,,4 B,,2 | B,,6- | B,,4 z2 | x6 | %122
 F,6 | F,2 z2 z2 | x6 | x6 | x6 | !arpeggio![F,A,CE]2 z2 z2 | z2 z2 A,!mp!!<(!B,!<)! | x6 | x6 | %131
 !arpeggio![F,A,CE]2 z2 z2 | x6 | x6 | x6 | x6 | x6 | x6 | x6 | x6 | x6 | x6 | x6 | x6 | x6 | x6 | %146
 x6 | x6 | x6 | x6 | x6 | x6 | x6 | x6 | x6 | x6 | x6 | x6 | x6 | B,,4 _A,,2 | G,,4 F,,2 | %161
 E,,4 x2 | x4 B,,2 | F,,2 z2 F,2 | F,,2 z2 F,2 | B,, x x4 | x4 B,,2 | F,, x x4 | x4 F,,2 | %169
 B,, x x4 | x4 B,,2 | F,, x x4 | x4 F,,2 | x6 | x6 | x6 | x6 | x6 | x6 | x6 | x6 | x6 | x6 | x6 | %184
 x6 | x6 | x6 | x6 | x6 | x6 | x6 | x6 | x6 | x6 | x6 | x6 | x6 | x6 | x6 | x6 | x6 | %201
[K:treble] x6 | x6 | x6 | x6 | x6 | x6 | x6 | x6 | x6 | x2[K:bass] x4 | x6 | x6 | x6 | x6 | x6 | %216
 x6 |[K:treble] F6- | F6 |[K:bass] B,6- | B,6 | C6- | C6 | F,6 | G,6 | x6 | x6 | x6 | x6 | x6 | %230
 x6 | x6 | x6 | x6 | x6 | x6 | x6 | x6 | x6 | x6 | x6 | x6 | x6 | x6 | x6 | x6 | x6 | [A,,F,]6- | %248
 [A,,F,]6- | [A,,-F,]6 | A,,4 B,,2 | [A,,F,]6- | [A,,F,]6- | [A,,-F,]6 | A,,4 B,,2 | A,,2 x4 | x6 | %257
 x6 | x6 | x6 | x6 | x6 | x6 | x6 | x6 | x6 | x6 | x6 | x6 | x6 | x6 | x6 | x6 | x6 |] %274

